X: 74
T: Missa Incessament / Gloria
N: Derived from Rue1016b-Missa_Incessament-Gloria.krn
C: Pierre de la Rue
%%abc-version 2.0
%%abcx-abcm2ps-target-version 5.9.1 (29 Sep 2008)
%%abc-creator hum2abc beta
%%abcx-conversion-date 2019/02/17 08:01:12
%%abc-edited-by Jesse Rodin
%%abc-edited-by Chris Gage 10/15/2012
%%abcx-initial-encoding-date 2012/11/11/
%%humdrum-veritas 2698223545
%%humdrum-veritas-data 1335737962
%%linebreak <none>
%%barnumbers 0
L: 1/4
M: 2/1
Q: 1/2=120
V: 1 clef=treble
V: 2 clef=treble-8
V: 3 clef=treble-8
V: 4 clef=bass
V: 5 clef=bass
K: C
[V:1] G6G2 | 
[V:2] z8 | 
[V:3] G3AB2c2 | 
[V:4] z8 | 
[V:5] z8 | 
[V:1] E4D4 | 
[V:2] z8 | 
[V:3] G2c4B2 | 
[V:4] z8 | 
[V:5] z8 | 
[V:1] C4G3A | 
[V:2] g6g2 | 
[V:3] c8 | 
[V:4] z8 | 
[V:5] z8 | 
[V:1] B2c4B2 | 
[V:2] e4d4 | 
[V:3] z8 | 
[V:4] z8 | 
[V:5] z8 | 
[V:1] c8 | 
[V:2] c3de2f2- | 
[V:3] A8 | 
[V:4] z8 | 
[V:5] z8 | 
[V:1] A3BG4 | 
[V:2] fed4c2 | 
[V:3] F3GE4 | 
[V:4] z8 | 
[V:5] z8 | 
[V:1] F3GA2D2- | 
[V:2] d4z2d2 | 
[V:3] D8 | 
[V:4] z8 | 
[V:5] z8 | 
[V:1] D2A2B2d2- | 
[V:2] d3ef2g2 | 
[V:3] d8 | 
[V:4] z8 | 
[V:5] z8 | 
[V:1] d2cBc4 | 
[V:2] d2g4^f2 | 
[V:3] B3cA4 | 
[V:4] z8 | 
[V:5] z8 | 
[V:1] B8 | 
[V:2] g4z2e2 | 
[V:3] G8 | 
[V:4] z8 | 
[V:5] z8 | 
[V:1] z8 | 
[V:2] f2f2d2g2- | 
[V:3] z2A2B2B2 | 
[V:4] z8 | 
[V:5] z8 | 
[V:1] z8 | 
[V:2] g2fed4 | 
[V:3] G2c4B2 | 
[V:4] z8 | 
[V:5] z4z2G,2 | 
[V:1] z8 | 
[V:2] c4z2d2 | 
[V:3] c4z2A2 | 
[V:4] z8 | 
[V:5] A,2A,2F,4 | 
[V:1] z8 | 
[V:2] e2e2c4 | 
[V:3] B2G2A4 | 
[V:4] z4z2C2 | 
[V:5] z2E,2F,2F,2 | 
[V:1] z8 | 
[V:2] z4z2e2 | 
[V:3] z2A2B2G2 | 
[V:4] D2D2B,4 | 
[V:5] D,2D,2G,4 | 
[V:1] z8 | 
[V:2] f2f2d2d2 | 
[V:3] A2F2G4 | 
[V:4] z2A,2B,2B,2 | 
[V:5] z8 | 
[V:1] z8 | 
[V:2] g4z4 | 
[V:3] z8 | 
[V:4] G,2G,2C4 | 
[V:5] z2E,2F,2F,2 | 
[V:1] z8 | 
[V:2] z4z2e2 | 
[V:3] z2A2B2G2 | 
[V:4] z8 | 
[V:5] D,4G,4 | 
[V:1] z8 | 
[V:2] f2f2d4 | 
[V:3] A2F2G4 | 
[V:4] z2A,2B,2B,2 | 
[V:5] z8 | 
[V:1] z8 | 
[V:2] g4z2c2 | 
[V:3] z8 | 
[V:4] G,4C4 | 
[V:5] z2E,2F,2F,2 | 
[V:1] z8 | 
[V:2] d2f2e2dc | 
[V:3] z2A2B2G2 | 
[V:4] z8 | 
[V:5] D,3E,/F,/G,2G,2- | 
[V:1] z4z2B2 | 
[V:2] d4d4 | 
[V:3] A2A2G4 | 
[V:4] z2A,2B,2B,2 | 
[V:5] G,2F,2G,3F, | 
[V:1] B2G4E2 | 
[V:2] g4z2G2 | 
[V:3] z8 | 
[V:4] G,3A,/B,/C2C2- | 
[V:5] G,F,E,D,E,4 | 
[V:1] F4E3D | 
[V:2] A2F2G2G2- | 
[V:3] z2F2C2C2 | 
[V:4] C2B,2C3B, | 
[V:5] D,4z4 | 
[V:1] EFG4^F2 | 
[V:2] GABcd4 | 
[V:3] E2E2D4 | 
[V:4] CB,A,G,A,4 | 
[V:5] z8 | 
[V:1] G2B2B2G2- | 
[V:2] B3cd2e2- | 
[V:3] z2G3FED | 
[V:4] G,4z4 | 
[V:5] z4G,4 | 
[V:1] G2E2F4 | 
[V:2] edc4B2 | 
[V:3] CDECD4 | 
[V:4] z8 | 
[V:5] G,2G,4F,2 | 
[V:1] E4c3B | 
[V:2] c8 | 
[V:3] C4G4 | 
[V:4] z4C4 | 
[V:5] G,4E,2C,2- | 
[V:1] A2G2F4 | 
[V:2] z8 | 
[V:3] E2C2F4 | 
[V:4] C2C4B,2 | 
[V:5] C,D,E,C,D,4 | 
[V:1] E4z4 | 
[V:2] c3decd2 | 
[V:3] G4z4 | 
[V:4] C4A,2F,2- | 
[V:5] C,4z4 | 
[V:1] z4z2G2 | 
[V:2] c2f4e2 | 
[V:3] z8 | 
[V:4] F,G,A,F,G,4 | 
[V:5] z8 | 
[V:1] A2c2B2G2- | 
[V:2] f3edcd2- | 
[V:3] z4G4 | 
[V:4] F,4z4 | 
[V:5] z4G,4 | 
[V:1] G2E2F4 | 
[V:2] dcc4B2 | 
[V:3] E2C2D4 | 
[V:4] z8 | 
[V:5] G,2G,4F,2 | 
[V:1] E4c3B | 
[V:2] c8 | 
[V:3] C4G4 | 
[V:4] z4C4 | 
[V:5] G,4E,2C,2- | 
[V:1] A2G2F4 | 
[V:2] z8 | 
[V:3] E2C2F4 | 
[V:4] C2C4B,2 | 
[V:5] C,D,E,C,D,4 | 
[V:1] E4z4 | 
[V:2] c3decd2 | 
[V:3] G2E2C2F2- | 
[V:4] C4A,2F,2- | 
[V:5] C,4z4 | 
[V:1] z4z2G2 | 
[V:2] c2f4e2 | 
[V:3] FED2C4 | 
[V:4] F,G,A,F,G,4 | 
[V:5] z8 | 
[V:1] A2c2B2A2- | 
[V:2] f2c2d2f2 | 
[V:3] z8 | 
[V:4] F,4z4 | 
[V:5] z8 | 
[V:1] AGF2E4 | 
[V:2] e2d4c2 | 
[V:3] z8 | 
[V:4] z8 | 
[V:5] z8 | 
[V:1] D4z4 | 
[V:2] d2B2A4 | 
[V:3] z2G2A2c2 | 
[V:4] z8 | 
[V:5] z4z2C,2 | 
[V:1] z8 | 
[V:2] z8 | 
[V:3] B2A3GF2 | 
[V:4] z8 | 
[V:5] D,2F,2E,2D,2- | 
[V:1] z8 | 
[V:2] z8 | 
[V:3] E4D4 | 
[V:4] z4z2F,2 | 
[V:5] D,^C,C,2D,4 | 
[V:1] z4z2G2 | 
[V:2] z8 | 
[V:3] z8 | 
[V:4] G,2_B,2A,2G,2- | 
[V:5] C,2D,3C,B,,2 | 
[V:1] A2c2B4 | 
[V:2] z8 | 
[V:3] z4z2G2 | 
[V:4] G,^F,F,2G,4 | 
[V:5] A,,4G,,4 | 
[V:1] z8 | 
[V:2] z4z2c2 | 
[V:3] A2B2G2c2- | 
[V:4] F,2G,3F,E,2 | 
[V:5] z8 | 
[V:1] z4z2G2 | 
[V:2] d2f2e4 | 
[V:3] c2B2c4 | 
[V:4] D,4C,4 | 
[V:5] z8 | 
[V:1] A2c2B2A2- | 
[V:2] z2c2d2f2 | 
[V:3] z8 | 
[V:4] z8 | 
[V:5] z8 | 
[V:1] AGF2E4 | 
[V:2] e2d4c2 | 
[V:3] z8 | 
[V:4] z8 | 
[V:5] z8 | 
[V:1] D4z4 | 
[V:2] d2B2A4 | 
[V:3] z2G2A2c2 | 
[V:4] z8 | 
[V:5] z4z2C,2 | 
[V:1] z8 | 
[V:2] z8 | 
[V:3] B2A3GF2 | 
[V:4] z8 | 
[V:5] D,2F,2E,2D,2- | 
[V:1] z8 | 
[V:2] z8 | 
[V:3] E4D4 | 
[V:4] z4z2F,2 | 
[V:5] D,2^C,2D,4 | 
[V:1] z4z2G2 | 
[V:2] z8 | 
[V:3] z8 | 
[V:4] G,2_B,2A,2G,2- | 
[V:5] C,2D,3C,B,,2 | 
[V:1] A2c2B4 | 
[V:2] z8 | 
[V:3] z4z2G2 | 
[V:4] G,2^F,2G,4 | 
[V:5] A,,4G,,4 | 
[V:1] A2B3AG2 | 
[V:2] z4z2c2 | 
[V:3] c2B2G2G2 | 
[V:4] F,2G,3F,E,2 | 
[V:5] z8 | 
[V:1] F4z2G2- | 
[V:2] d2f2e4 | 
[V:3] AFABc2c2 | 
[V:4] D,4C,4 | 
[V:5] z8 | 
[V:1] G2G2G4- | 
[V:2] e4e2e2- | 
[V:3] C8 | 
[V:4] z8 | 
[V:5] G,6G,2 | 
[V:1] G4G4 | 
[V:2] e2dcB2cB | 
[V:3] z8 | 
[V:4] z8 | 
[V:5] G,4G,4 | 
[V:1] E4E3F | 
[V:2] c2g2g2g2- | 
[V:3] z2C2C3D | 
[V:4] C6C2 | 
[V:5] C,8 | 
[V:1] G2A4G2 | 
[V:2] gcf4e2 | 
[V:3] E2F2C4 | 
[V:4] C4C4 | 
[V:5] z8 | 
[V:1] A2c4BA | 
[V:2] f8 | 
[V:3] F3GA4 | 
[V:4] F,8 | 
[V:5] z8 | 
[V:1] B4z2G2- | 
[V:2] z2g2g2e2- | 
[V:3] G4C4- | 
[V:4] z8 | 
[V:5] G,6G,2 | 
[V:1] G2G2G4 | 
[V:2] e2dcB2cB | 
[V:3] C4z4 | 
[V:4] z8 | 
[V:5] G,4G,4 | 
[V:1] E4E3F | 
[V:2] c2g2g2g2- | 
[V:3] z2C2C3D | 
[V:4] C6C2 | 
[V:5] C,8 | 
[V:1] G2A4G2 | 
[V:2] gcf4e2 | 
[V:3] E2F2C4 | 
[V:4] C4C4 | 
[V:5] z8 | 
[V:1] A2c4BA | 
[V:2] f8 | 
[V:3] F3GA4 | 
[V:4] F,8 | 
[V:5] z8 | 
[V:1] B2d3Gc2- | 
[V:2] g4e2f2 | 
[V:3] G3AB2c2 | 
[V:4] z8 | 
[V:5] z2G,4F,2 | 
[V:1] c2B2c4 | 
[V:2] d4c4 | 
[V:3] G4E3F | 
[V:4] z8 | 
[V:5] G,4C,3D, | 
[V:1] z8 | 
[V:2] z2c2d4 | 
[V:3] G2A2F4 | 
[V:4] z2C4B,2 | 
[V:5] E,2F,2D,4 | 
[V:1] z2G2A3B | 
[V:2] e4f3e | 
[V:3] G4z4 | 
[V:4] C4F,3G, | 
[V:5] C,4z4 | 
[V:1] c2d2B4 | 
[V:2] c2f4e2 | 
[V:3] z8 | 
[V:4] A,2B,2G,4 | 
[V:5] z8 | 
[V:1] A2d3cB2 | 
[V:2] f6d2 | 
[V:3] d8 | 
[V:4] F,4z4 | 
[V:5] D,6D,2 | 
[V:1] A2G4^F2 | 
[V:2] d8 | 
[V:3] B3cA4 | 
[V:4] z8 | 
[V:5] D,4D,4 | 
[V:1] [M:3/1]G12 | 
[V:2] [M:3/1]z12 | 
[V:3] [M:3/1]G4G4E4- | 
[V:4] [M:3/1]G,8-G,G,3 | 
[V:5] [M:3/1]E,4E,4C,4- | 
[V:1] z4z4d4 | 
[V:2] z4z4B4 | 
[V:3] E2F2D4D4 | 
[V:4] G,6G,6 | 
[V:5] C,2D,2B,,8 | 
[V:1] c4c4A4- | 
[V:2] c4e6d2 | 
[V:3] E8z4 | 
[V:4] [M:3/1]A,4A,4F,4- | 
[V:5] A,,12 | 
[V:1] A2B2G8 | 
[V:2] d6^c2^c4 | 
[V:3] z12 | 
[V:4] F,2G,2E,8 | 
[V:5] z12 | 
[V:1] F12 | 
[V:2] d12 | 
[V:3] z12 | 
[V:4] D,12 | 
[V:5] D,6E,2F,2D,2 | 
[V:1] z12 | 
[V:2] z12 | 
[V:3] G8E4- | 
[V:4] z12 | 
[V:5] E,8C,4- | 
[V:1] z4z4d4 | 
[V:2] z4z4B4 | 
[V:3] E2F2D6E2 | 
[V:4] G,6A,2B,2G,2 | 
[V:5] C,2D,2B,,8 | 
[V:1] c4c4A4- | 
[V:2] c4e6d2 | 
[V:3] E12 | 
[V:4] A,8F,4- | 
[V:5] A,,12 | 
[V:1] A2B2G8 | 
[V:2] d6^c2^c4 | 
[V:3] z12 | 
[V:4] F,2G,2E,8 | 
[V:5] z12 | 
[V:1] F6G2A4 | 
[V:2] d4f6e2 | 
[V:3] z12 | 
[V:4] D,12 | 
[V:5] A,8F,4 | 
[V:1] B4G8 | 
[V:2] d6^c2^c4 | 
[V:3] G8G4 | 
[V:4] z12 | 
[V:5] G,4E,8 | 
[V:1] F4z4d4 | 
[V:2] d12 | 
[V:3] A6F2G4 | 
[V:4] D8B,4 | 
[V:5] D,8z4 | 
[V:1] c8A4 | 
[V:2] z12 | 
[V:3] A4c8 | 
[V:4] C4A,8 | 
[V:5] A,8F,4 | 
[V:1] B4G8 | 
[V:2] g8e4 | 
[V:3] B6G2G4 | 
[V:4] G,8z4 | 
[V:5] G,4E,8 | 
[V:1] F4_B6A2 | 
[V:2] f4d8 | 
[V:3] A4F4G4 | 
[V:4] D8B,4 | 
[V:5] D,4D,4G,4 | 
[V:1] G6^F2F4 | 
[V:2] e4d8 | 
[V:3] E4F6D2 | 
[V:4] C4A,8 | 
[V:5] C,4D,8 | 
[V:1] G12- | 
[V:2] B6G2B2c2 | 
[V:3] D4E8 | 
[V:4] G,12- | 
[V:5] G,,12- | 
[V:1] G12- | 
[V:2] d12 | 
[V:3] D12- | 
[V:4] G,12- | 
[V:5] G,,12- | 
[V:1] G12 ||  
[V:2] d12 ||  
[V:3] D12 ||  
[V:4] G,12 ||  
[V:5] G,,12 ||  
[V:1]  [K:C] [K:clef=treble][M:2/1]G8 | 
[V:2]  [K:C] [K:clef=treble-8][M:2/1]G3AB2c2 | 
[V:3]  [K:C] [K:clef=treble-8][M:2/1]z8 | 
[V:4]  [K:C] [K:clef=bass][M:2/1]z8 | 
[V:5]  [K:C] [K:clef=bass][M:2/1]z8 | 
[V:1] G4G4 | 
[V:2] G2c4B2 | 
[V:3] z8 | 
[V:4] z8 | 
[V:5] z8 | 
[V:1] E3FG2A2 | 
[V:2] c8 | 
[V:3] C3DE2F2 | 
[V:4] z8 | 
[V:5] z8 | 
[V:1] E2A4G2 | 
[V:2] c4c4 | 
[V:3] C2F4E2 | 
[V:4] z8 | 
[V:5] z8 | 
[V:1] A8- | 
[V:2] A3Bc2d2 | 
[V:3] F3GA2D2 | 
[V:4] z8 | 
[V:5] z8 | 
[V:1] A8 | 
[V:2] A2d4^c2 | 
[V:3] F3GA4 | 
[V:4] z8 | 
[V:5] z8 | 
[V:1] z8 | 
[V:2] d8- | 
[V:3] z2A2A2B2- | 
[V:4] z8 | 
[V:5] D,3E,F,2G,2 | 
[V:1] z8 | 
[V:2] d8 | 
[V:3] B2AGA4 | 
[V:4] z8 | 
[V:5] D,2G,4^F,2 | 
[V:1] z8 | 
[V:2] z2d2d2e2- | 
[V:3] G6C2 | 
[V:4] G,3A,B,2C2 | 
[V:5] G,8- | 
[V:1] z8 | 
[V:2] e2dcd4 | 
[V:3] C4G4 | 
[V:4] G,2C4B,2 | 
[V:5] G,8 | 
[V:1] z2G2G2A2- | 
[V:2] c3de2A2 | 
[V:3] C4z4 | 
[V:4] C8- | 
[V:5] z2E,2E,2F,2- | 
[V:1] A2GFG4 | 
[V:2] A4z4 | 
[V:3] z8 | 
[V:4] C8 | 
[V:5] F,2E,D,E,4 | 
[V:1] F4F3E | 
[V:2] d8 | 
[V:3] z8 | 
[V:4] z2A,2A,2_B,2- | 
[V:5] D,8- | 
[V:1] F2G4F2 | 
[V:2] d4d4 | 
[V:3] z8 | 
[V:4] B,2A,G,A,4 | 
[V:5] D,8 | 
[V:1] G2B2c2d2- | 
[V:2] B3c/d/e2d2 | 
[V:3] z8 | 
[V:4] G,8- | 
[V:5] z8 | 
[V:1] dcc4B2 | 
[V:2] e4d4 | 
[V:3] z4z2G2 | 
[V:4] G,8 | 
[V:5] z8 | 
[V:1] c8 | 
[V:2] c8 | 
[V:3] A2A2F2F2 | 
[V:4] z8 | 
[V:5] z8 | 
[V:1] z4z2G2 | 
[V:2] z2d2e2e2 | 
[V:3] G2G2E4 | 
[V:4] z8 | 
[V:5] z8 | 
[V:1] A2A2F2F2 | 
[V:2] c2c2d2d2 | 
[V:3] z8 | 
[V:4] z8 | 
[V:5] z8 | 
[V:1] G2G2E4 | 
[V:2] B4z2e2 | 
[V:3] z4z2c2 | 
[V:4] z8 | 
[V:5] z2G,2A,2A,2 | 
[V:1] z2A2B2B2 | 
[V:2] f2f2d2d2 | 
[V:3] d2d2B2G2- | 
[V:4] z8 | 
[V:5] F,2F,2G,2G,2 | 
[V:1] G2G2F4 | 
[V:2] e4f4 | 
[V:3] G2FED4 | 
[V:4] z2C2D2D2 | 
[V:5] E,4z4 | 
[V:1] G4E4 | 
[V:2] d4z4 | 
[V:3] G4C4 | 
[V:4] B,2B,2C2C2 | 
[V:5] z8 | 
[V:1] z4c4- | 
[V:2] e8- | 
[V:3] c8- | 
[V:4] A,4z4 | 
[V:5] z4C,4- | 
[V:1] c4c4 | 
[V:2] e4e4 | 
[V:3] c4c4 | 
[V:4] z8 | 
[V:5] C,4C,4 | 
[V:1] A4d4 | 
[V:2] f4f4- | 
[V:3] F4A4- | 
[V:4] z4F,4- | 
[V:5] D,4D,4 | 
[V:1] d2d2d2d2- | 
[V:2] f2f2f2f2 | 
[V:3] A4A4 | 
[V:4] F,4F,4 | 
[V:5] D,2D,2D,2D,2 | 
[V:1] d2B4G2- | 
[V:2] d2g4e2- | 
[V:3] B4B4 | 
[V:4] G,4G,4 | 
[V:5] G,,8- | 
[V:1] G2FED3E | 
[V:2] e2dcB3c | 
[V:3] G8 | 
[V:4] G,2G,2G,2G,2 | 
[V:5] G,,8 | 
[V:1] E4z2G2 | 
[V:2] c4z2e2 | 
[V:3] G8 | 
[V:4] C,8- | 
[V:5] z8 | 
[V:1] E2G4FE | 
[V:2] c2e4dc | 
[V:3] G4GABc | 
[V:4] C,8 | 
[V:5] z8 | 
[V:1] D2d2B2G2- | 
[V:2] B2g3fe2- | 
[V:3] d4G4 | 
[V:4] z8 | 
[V:5] G,8- | 
[V:1] G2FED3E | 
[V:2] e2dcB3c | 
[V:3] B6G2 | 
[V:4] z8 | 
[V:5] G,8 | 
[V:1] E3FG2A2- | 
[V:2] c8 | 
[V:3] G4z4 | 
[V:4] C8- | 
[V:5] C,3D,E,2F,2- | 
[V:1] A2GFG3A | 
[V:2] z8 | 
[V:3] z8 | 
[V:4] C8 | 
[V:5] F,2E,D,E,4 | 
[V:1] _B2A3GFE | 
[V:2] z8 | 
[V:3] z8 | 
[V:4] F,3G,A,2_B,2- | 
[V:5] D,8 | 
[V:1] D2G4^F2 | 
[V:2] z4z2d2 | 
[V:3] z8 | 
[V:4] B,2A,G,A,4 | 
[V:5] z4z2D,2 | 
[V:1] G8 | 
[V:2] c2d4e2 | 
[V:3] z4B4 | 
[V:4] G,8 | 
[V:5] E,2F,2G,4 | 
[V:1] z8 | 
[V:2] fedcBAcB | 
[V:3] A4F2GF | 
[V:4] z4z2G,2 | 
[V:5] F,3E,D,2C,2- | 
[V:1] z8 | 
[V:2] AGG4^F2 | 
[V:3] EDD4C2 | 
[V:4] A,2B,2C4 | 
[V:5] C,B,,A,,G,,A,,4 | 
[V:1] G4G2A2- | 
[V:2] G4z4 | 
[V:3] D2G3ABc | 
[V:4] B,3A,G,2F,2- | 
[V:5] G,,4z4 | 
[V:1] AGFEF4 | 
[V:2] z8 | 
[V:3] d2c4B2 | 
[V:4] F,E,D,C,D,4 | 
[V:5] z4z2D,2 | 
[V:1] E2c2B2G2 | 
[V:2] z2c2e2e2 | 
[V:3] c4z2B2 | 
[V:4] C,4z4 | 
[V:5] E,2F,2G,4 | 
[V:1] A2F4E2- | 
[V:2] fedcBAcB | 
[V:3] A2A2F2GF | 
[V:4] z4z2G,2 | 
[V:5] F,3E,D,2C,2- | 
[V:1] EDCB,A,4 | 
[V:2] AGG4^F2 | 
[V:3] EFD4C2 | 
[V:4] A,2B,2C4 | 
[V:5] C,B,,A,,G,,A,,4 | 
[V:1] z2G2G2A2- | 
[V:2] G4z4 | 
[V:3] D2G3ABc | 
[V:4] B,3A,G,2F,2- | 
[V:5] G,,4z4 | 
[V:1] AGFEF4 | 
[V:2] z8 | 
[V:3] d2c4B2 | 
[V:4] F,E,D,C,D,4 | 
[V:5] z8 | 
[V:1] E2c2B2G2 | 
[V:2] z2c2d2e2- | 
[V:3] c4z2c2- | 
[V:4] C,4z4 | 
[V:5] z8 | 
[V:1] A2c2B2G2- | 
[V:2] e2c2d2e2- | 
[V:3] cBA2G4 | 
[V:4] z8 | 
[V:5] z8 | 
[V:1] G2A4GF | 
[V:2] edc4B2 | 
[V:3] E2F2D4 | 
[V:4] z8 | 
[V:5] z8 | 
[V:1] E4z2E2- | 
[V:2] c4z2c2 | 
[V:3] C2G4G2 | 
[V:4] z8 | 
[V:5] C,6C,2 | 
[V:1] E2E2G2G2 | 
[V:2] c2c2e4 | 
[V:3] G4E4 | 
[V:4] z8 | 
[V:5] C,4C,4 | 
[V:1] F4F4 | 
[V:2] d4d4 | 
[V:3] A4A4- | 
[V:4] F,6F,2 | 
[V:5] D,4D,4 | 
[V:1] F6D2 | 
[V:2] d6B2 | 
[V:3] A4D4 | 
[V:4] F,4F,4 | 
[V:5] D,8 | 
[V:1] D8 | 
[V:2] B8 | 
[V:3] D8- | 
[V:4] G,4G,4 | 
[V:5] G,,8- | 
[V:1] z4G4- | 
[V:2] z4d4 | 
[V:3] D8 | 
[V:4] G,8 | 
[V:5] G,,8 | 
[V:1] G4G4 | 
[V:2] e4e4 | 
[V:3] z4C4 | 
[V:4] C,8- | 
[V:5] z4C,4 | 
[V:1] E4A4- | 
[V:2] c2c3dec | 
[V:3] G4A4- | 
[V:4] C,8 | 
[V:5] C,4A,,4 | 
[V:1] A4D4 | 
[V:2] d8- | 
[V:3] A4A4 | 
[V:4] z4F,4 | 
[V:5] D,8- | 
[V:1] D8 | 
[V:2] d4B4 | 
[V:3] F4G4 | 
[V:4] F,4D,4 | 
[V:5] D,4G,,4 | 
[V:1] z4G4- | 
[V:2] B4d4 | 
[V:3] D4z2D2 | 
[V:4] G,8- | 
[V:5] G,,8 | 
[V:1] G4G4 | 
[V:2] e6e2 | 
[V:3] C3DE2F2 | 
[V:4] G,4C,4 | 
[V:5] z4C,4 | 
[V:1] E4A4 | 
[V:2] c2c3dec | 
[V:3] G2A4A2 | 
[V:4] C,8 | 
[V:5] C,4A,,4 | 
[V:1] A4D2D2- | 
[V:2] d8- | 
[V:3] D4z2A2 | 
[V:4] z4F,4 | 
[V:5] D,8 | 
[V:1] D2A2B2d2- | 
[V:2] d4B4 | 
[V:3] B2d3cBA | 
[V:4] F,4D,4 | 
[V:5] D,4G,,4 | 
[V:1] dcBA(3G2A2B2 | 
[V:2] B8 | 
[V:3] G2d2e4 | 
[V:4] G,8 | 
[V:5] G,,8 | 
[V:1] (3c2d2B2c2A2 | 
[V:2] z8 | 
[V:3] d4c2c2- | 
[V:4] G,4C,4 | 
[V:5] z8 | 
[V:1] G4z2c2- | 
[V:2] z8 | 
[V:3] c2B2A2GF | 
[V:4] C,8 | 
[V:5] z8 | 
[V:1] c2B2A2GF | 
[V:2] z4z2g2- | 
[V:3] EFGEF2E2 | 
[V:4] z8 | 
[V:5] z8 | 
[V:1] E2A2G2E2 | 
[V:2] g2f2e2dc | 
[V:3] C2F2E2C2 | 
[V:4] z8 | 
[V:5] z8 | 
[V:1] F2G2A4- | 
[V:2] B4A2d2 | 
[V:3] D2E2F2D2- | 
[V:4] z8 | 
[V:5] z8 | 
[V:1] A2GFE4 | 
[V:2] c2A2B2c2 | 
[V:3] DEF2G2A2 | 
[V:4] z8 | 
[V:5] z8 | 
[V:1] D4z4 | 
[V:2] d2cBA4 | 
[V:3] B2G4^F2 | 
[V:4] z8 | 
[V:5] z8 | 
[V:1] G4G2G2 | 
[V:2] G8 | 
[V:3] G4z2C2 | 
[V:4] z8 | 
[V:5] z8 | 
[V:1] G2E2F2G2 | 
[V:2] z8 | 
[V:3] C2C2D2E2 | 
[V:4] z8 | 
[V:5] z8 | 
[V:1] A3GFEA2- | 
[V:2] c4c2c2 | 
[V:3] F3GA2F2- | 
[V:4] z8 | 
[V:5] z8 | 
[V:1] AGF2E4 | 
[V:2] c2A2B2c2 | 
[V:3] FEF2G2A2 | 
[V:4] z8 | 
[V:5] z8 | 
[V:1] D4z2G2- | 
[V:2] d2g3fed | 
[V:3] B6G2 | 
[V:4] z8 | 
[V:5] G,4G,2G,2 | 
[V:1] G2G2A2B2 | 
[V:2] e3fd4 | 
[V:3] G4z4 | 
[V:4] z8 | 
[V:5] G,2E,2F,2G,2 | 
[V:1] c3BAGc2 | 
[V:2] c4z4 | 
[V:3] z8 | 
[V:4] C4C2C2 | 
[V:5] A,3G,F,E,A,2- | 
[V:1] A3BG4 | 
[V:2] e4e2e2 | 
[V:3] z4G4 | 
[V:4] C2A,2B,2C2 | 
[V:5] A,2G,F,E,4 | 
[V:1] z2d3cB2 | 
[V:2] f2f2f4 | 
[V:3] A4F2D2 | 
[V:4] D3CB,A,D2- | 
[V:5] D,8- | 
[V:1] A2G4^F2 | 
[V:2] d4d4 | 
[V:3] F2G2A4 | 
[V:4] D2CB,A,4 | 
[V:5] D,8 | 
[V:1] GABcded2 | 
[V:2] z2d2d2d2 | 
[V:3] B6cd | 
[V:4] G,8- | 
[V:5] z2G,2G,2G,2 | 
[V:1] G2c4B2 | 
[V:2] g4g4 | 
[V:3] e4d4 | 
[V:4] G,8 | 
[V:5] E,C,E,F,G,2G,2 | 
[V:1] c3BAGA2- | 
[V:2] e4f3e | 
[V:3] c8 | 
[V:4] z2C2C2C2 | 
[V:5] A,3G,F,E,F,2- | 
[V:1] A2A2G2E2 | 
[V:2] c2d2G4 | 
[V:3] z4z2G2 | 
[V:4] A,F,A,B,C2C2 | 
[V:5] F,2E,D,E,4 | 
[V:1] F2A3GFE | 
[V:2] z4d4 | 
[V:3] A3GFED2- | 
[V:4] D3CB,A,B,2- | 
[V:5] D,8 | 
[V:1] D2G4^F2 | 
[V:2] d8 | 
[V:3] D2d3cA2 | 
[V:4] B,2A,G,A,4 | 
[V:5] D,8 | 
[V:1] G8- | 
[V:2] d8- | 
[V:3] B2G4FE | 
[V:4] G,8- | 
[V:5] G,,8- | 
[V:1] G8 |]  
[V:2] d8 |]  
[V:3] D8 |]  
[V:4] G,8 |]  
[V:5] G,,8 |]  



